!!!Genre:	Plyeskun
!!!Mode:	Altered Dorian
!!!Listening/dance:	dance
!!!:	*g:
!!!One_Mode:	no
**kern
*staff1
*I"P1
=1-
*clefG2
*k[b-]
*g:dor
*M2/4
*>A
8.b-\L
16dd\Jk
(16dd\LL
16cc#\)
(16cc#\
16b-\JJ)
=2
(16dd\LL
16cc#\)
(16cc#\
16b-\JJ)
(16b-/LL
16a/)
(16a/
16g/JJ)
=3
(8.b-\L
16dd\Jk)
(16dd\LL
16cc#\)
(16cc#\
16b-\JJ)
=4
(16b-/LL
16a/)
(16a/
16g/JJ)
8.b-/L
16g/Jk
=5:|!
(16b-/LL
16a/)
(16a/
16g/JJ)
4g/
=6|=|!|:
*>B
*k[b-e-]
*>bM
*g:dor
*k[b-e]
=12:|!|:
*>C
4b-\
16cc#\LL
16dd\
16cc#\
16b-\JJ
=13
16cc#\LL
16dd\
16cc#\
16b-\JJ
(16b-/LL
16a/)
(16a/
16g/JJ)
=14
4b-\
16cc#\LL
16dd\
16cc#\
16b-\JJ
=15
(16b-/LL
16a/)
(16a/
16g/JJ)
(8b-/L
8g/J)
=16:|!
(16b-/LL
16a/)
(16a/
16g/JJ)
4g/
=17||
*-
